svg/magnet.svg

<svg xmlns="http://www.w3.org/2000/svg" viewBox="0 0 56 64" enable-background="new 0 0 56 64"><style type="text/css">.st0{fill:#343434;}</style><title>magnet</title><desc>Created with Sketch.</desc><path class="st0" d="M28 0c-15.5 0-28 12.5-28 28v32c0 2.2 1.8 4 4 4h11c2.2 0 4-1.8 4-4v-31c0-5 4-9 9-9s9 4 9 9v31c0 2.2 1.8 4 4 4h11c2.2 0 4-1.8 4-4v-32c0-15.5-12.5-28-28-28zm-13 60h-11v-12h11v12zm13-44c-7.2 0-13 5.8-13 13v15h-11v-16c0-13.3 10.7-24 24-24s24 10.7 24 24v16h-11v-15c0-7.2-5.8-13-13-13zm24 44h-11v-12h11v12z"/></svg>

<svg xmlns="http://www.w3.org/2000/svg" viewBox="0 0 56 64"><path d="M28 0C12.5 0 0 12.5 0 28v32c0 2.2 1.8 4 4 4h11c2.2 0 4-1.8 4-4V29c0-5 4-9 9-9s9 4 9 9v31c0 2.2 1.8 4 4 4h11c2.2 0 4-1.8 4-4V28C56 12.5 43.5 0 28 0zM15 60H4V48h11v12zm13-44c-7.2 0-13 5.8-13 13v15H4V28C4 14.7 14.7 4 28 4s24 10.7 24 24v16H41V29c0-7.2-5.8-13-13-13zm24 44H41V48h11v12z" fill="#343434"/></svg>
